symbols/default/05n.svg

<svg width="100" height="100" viewBox="0 0 100 100" fill="none" xmlns="http://www.w3.org/2000/svg">
<g clip-path="url(#clip0_149_1391)">
<path fill-rule="evenodd" clip-rule="evenodd" d="M28.4427 13.5646C28.4427 9.69633 27.3268 6.05121 25.5415 2.92682C35.2069 4.1607 42.7878 11.8376 43.9187 21.5337C39.9745 23.675 36.524 26.7069 33.9 30.4H32.8C27.9 30.4 23.4 32.7 20.7 36.6C16.6415 36.8435 12.8466 38.2729 9.68955 40.7279C7.57913 39.048 5.78488 36.9739 4.41464 34.6171C5.30733 34.7658 6.20001 34.8402 7.16708 34.8402C18.9207 34.8402 28.4427 25.3183 28.4427 13.5646Z" fill="url(#paint0_linear_149_1391)"/>
<path fill-rule="evenodd" clip-rule="evenodd" d="M81.3 42.9C79.4 31.6 69.4 23 57.7 23C48.6 23 40.4 28.1 36.4 36.1C35.2 35.6 34 35.4 32.8 35.4C28.6 35.4 25 37.9 23.6 41.6C23 41.5 22.5 41.5 21.9 41.5C17.8 41.5 14 43.1 11.2 46C8.5 48.8 7 52.4 7 56.2V56.4C7.1 60.5 8.7 64.2 11.6 66.9C14.3 69.6 18 71.1 21.9 71.1H77.6C85.5 71.1 92 64.7 92 56.8C92 50.2 87.5 44.5 81.3 42.9Z" fill="#B2B2B2"/>
<g opacity="0.6">
<path fill-rule="evenodd" clip-rule="evenodd" d="M81.3 42.9C79.4 31.6 69.4 23 57.7 23C48.6 23 40.4 28.1 36.4 36.1C35.2 35.6 34 35.4 32.8 35.4C28.6 35.4 25 37.9 23.6 41.6C23 41.5 22.5 41.5 21.9 41.5C17.8 41.5 14 43.1 11.2 46C8.5 48.8 7 52.4 7 56.2V56.4C7.1 60.5 8.7 64.2 11.6 66.9C14.3 69.6 18 71.1 21.9 71.1H77.6C85.5 71.1 92 64.7 92 56.8C92 50.2 87.5 44.5 81.3 42.9Z" fill="url(#paint1_linear_149_1391)" style="mix-blend-mode:multiply"/>
</g>
<path d="M35.5 90C35.2 90 34.8 89.9 34.5 89.8C33.2 89.2 32.7 87.8 33.2 86.5L36.7 78.5C37.3 77.2 38.7 76.7 40 77.2C41.3 77.8 41.8 79.2 41.3 80.5L37.8 88.5C37.4 89.5 36.5 90 35.5 90Z" fill="#006EDB"/>
<path d="M48.5 99C48.2 99 47.8 98.9 47.5 98.8C46.2 98.2 45.7 96.8 46.2 95.5L49.7 87.5C50.3 86.2 51.7 85.7 53 86.2C54.3 86.8 54.8 88.2 54.3 89.5L50.8 97.5C50.4 98.5 49.5 99 48.5 99Z" fill="#006EDB"/>
<path d="M63.5 90C63.2 90 62.8 89.9 62.5 89.8C61.2 89.2 60.7 87.8 61.2 86.5L64.7 78.5C65.3 77.2 66.7 76.7 68 77.2C69.3 77.8 69.8 79.2 69.3 80.5L65.8 88.5C65.4 89.5 64.5 90 63.5 90Z" fill="#006EDB"/>
</g>
<defs>
<linearGradient id="paint0_linear_149_1391" x1="12.9138" y1="43.4636" x2="40.2563" y2="10.8782" gradientUnits="userSpaceOnUse">
<stop stop-color="#686E73"/>
<stop offset="0.9891" stop-color="#6A7075"/>
</linearGradient>
<linearGradient id="paint1_linear_149_1391" x1="47.5" y1="38.5" x2="49.5" y2="71.1" gradientUnits="userSpaceOnUse">
<stop offset="0.484375" stop-color="white" stop-opacity="0"/>
<stop offset="1" stop-color="#B3B2B2"/>
</linearGradient>
<clipPath id="clip0_149_1391">
<rect width="100" height="100" fill="white"/>
</clipPath>
</defs>
</svg>

<svg xmlns="http://www.w3.org/2000/svg" fill="none" viewBox="0 0 100 100">
  <g clip-path="url(#a)">
    <path fill="url(#b)" fill-rule="evenodd" d="M28.443 13.565c0-3.869-1.116-7.514-2.902-10.638 9.666 1.234 17.247 8.91 18.378 18.607A29.67 29.67 0 0 0 33.9 30.4h-1.1c-4.9 0-9.4 2.3-12.1 6.2-4.058.243-7.853 1.673-11.01 4.128a21.853 21.853 0 0 1-5.275-6.11c.892.148 1.785.222 2.752.222 11.754 0 21.276-9.522 21.276-21.275Z" clip-rule="evenodd"/>
    <path fill="#B2B2B2" fill-rule="evenodd" d="M81.3 42.9C79.4 31.6 69.4 23 57.7 23c-9.1 0-17.3 5.1-21.3 13.1-1.2-.5-2.4-.7-3.6-.7-4.2 0-7.8 2.5-9.2 6.2-.6-.1-1.1-.1-1.7-.1-4.1 0-7.9 1.6-10.7 4.5C8.5 48.8 7 52.4 7 56.2v.2c.1 4.1 1.7 7.8 4.6 10.5 2.7 2.7 6.4 4.2 10.3 4.2h55.7c7.9 0 14.4-6.4 14.4-14.3 0-6.6-4.5-12.3-10.7-13.9Z" clip-rule="evenodd"/>
    <path fill="url(#c)" fill-rule="evenodd" d="M81.3 42.9C79.4 31.6 69.4 23 57.7 23c-9.1 0-17.3 5.1-21.3 13.1-1.2-.5-2.4-.7-3.6-.7-4.2 0-7.8 2.5-9.2 6.2-.6-.1-1.1-.1-1.7-.1-4.1 0-7.9 1.6-10.7 4.5C8.5 48.8 7 52.4 7 56.2v.2c.1 4.1 1.7 7.8 4.6 10.5 2.7 2.7 6.4 4.2 10.3 4.2h55.7c7.9 0 14.4-6.4 14.4-14.3 0-6.6-4.5-12.3-10.7-13.9Z" clip-rule="evenodd" opacity=".6" style="mix-blend-mode:multiply"/>
    <g filter="url(#d)" opacity=".3" style="mix-blend-mode:multiply">
      <path fill="#B6B6B6" d="M29.5 64c1.787 0 24.848-1.272 26.48-2 2.23-.994-2.39-6.972 0-7.47 1.08-.224 2.667-.927 2.667-.927s4.352-1.602 5.103-1.602c.75 0 .374-2.964.14-4.81l-.14-1.32c0-.87-2.592-2.674-3-4.87-.284-1.527.424-3.585.276-3.968 0 0-.05-.029-.036-.032.014-.004.026.007.036.032.112.053.922.327.922.327 1.948.66 5.03 1.74 7.802 3.64 1.658 1.138 3.941 3.314 3.941 3.314s1.645 1.272 2.059 1.687c1 1 4 4 6 4h5L89 51.59l.5 3.21c0 7.9-6.5 14.3-14.4 14.3H18.5S23 64 29.5 64Z"/>
    </g>
    <path fill="#006EDB" d="M35.5 90c-.3 0-.7-.1-1-.2-1.3-.6-1.8-2-1.3-3.3l3.5-8c.6-1.3 2-1.8 3.3-1.3 1.3.6 1.8 2 1.3 3.3l-3.5 8c-.4 1-1.3 1.5-2.3 1.5ZM48.5 99c-.3 0-.7-.1-1-.2-1.3-.6-1.8-2-1.3-3.3l3.5-8c.6-1.3 2-1.8 3.3-1.3 1.3.6 1.8 2 1.3 3.3l-3.5 8c-.4 1-1.3 1.5-2.3 1.5ZM63.5 90c-.3 0-.7-.1-1-.2-1.3-.6-1.8-2-1.3-3.3l3.5-8c.6-1.3 2-1.8 3.3-1.3 1.3.6 1.8 2 1.3 3.3l-3.5 8c-.4 1-1.3 1.5-2.3 1.5Z"/>
  </g>
  <defs>
    <linearGradient id="b" x1="12.914" x2="40.256" y1="43.464" y2="10.878" gradientUnits="userSpaceOnUse">
      <stop stop-color="#686E73"/>
      <stop offset=".989" stop-color="#6A7075"/>
    </linearGradient>
    <linearGradient id="c" x1="47.5" x2="49.5" y1="38.5" y2="71.1" gradientUnits="userSpaceOnUse">
      <stop offset=".484" stop-color="#fff" stop-opacity="0"/>
      <stop offset="1" stop-color="#B3B2B2"/>
    </linearGradient>
    <clipPath id="a">
      <path fill="#fff" d="M0 0h100v100H0z"/>
    </clipPath>
    <filter id="d" width="85" height="46.101" x="11.5" y="30" color-interpolation-filters="sRGB" filterUnits="userSpaceOnUse">
      <feFlood flood-opacity="0" result="BackgroundImageFix"/>
      <feBlend in="SourceGraphic" in2="BackgroundImageFix" result="shape"/>
      <feGaussianBlur result="effect1_foregroundBlur_149_1391" stdDeviation="3.5"/>
    </filter>
  </defs>
</svg>
